!!!OTL: Es taget minnecliche
!!!ARE: Europa, Mitteleuropa, Deutschland, Niederdeutschland
!!!SCT: A0017
!!!YEM: Copyright 1995, estate of Helmut Schaffrath.
**kern
*ICvox
*Ivox
*M3/2
*k[f#]
*G:
{2g
=1
1g
2cc
=2
1b
2a
=3
2cc
2dd
2b
=4
1a}
{2ee
=5
1dd
2dd
=6
1b
2b
=7
2cc
2dd
2b
=8
1a}
{2g
=9
1b
2cc
=10
1dd
2ee
=11
2dd
4cc
4b
2a
=12
1g}
{2a
=13
1dd
2cc
=14
1b
2a
=15
1g}
==
!!!AGN: Romanze, Ballade, Lied
!! Melodie: Strassburger Hs.(1421),121 Bl. 128b
!!!ONB: ESAC (Essen Associative Code) Database: ALTDEU
!!!AMT: simple triple
!!!AIN: vox
!!!EED: Helmut Schaffrath
!!!EEV: 1.0
*-
